X: 11354
T: Earl Of Hyndford, The
R: reel
M: 4/4
K: Aminor
|:A,B,CE ABcA|GEDC B,G,DB,|CA,CE ABcA|GEDB, EA,A,G,|
A,B,CD ABcA|GEDC B,G,DB,|CA,DB, ECFD|DCDB, CA,A,G,:|
|:AECc AecA|Ggde BdGB|cAed BGEA|GEDB, EA,A,2|
AECc AecA|GB,DG B,DG,B,|CA,DB, ECFD|DCDB, CA,A,G,:|

